src/content/images/providers/soundcloud.svg

<svg height="24" viewBox="0 0 42 24" width="42" xmlns="http://www.w3.org/2000/svg"><path d="m.50888444 10.6629242c-.0854988 0-.15335959.0662455-.1644144.1606984l-.29963913 2.2803079.29963913 2.2410251c.01105481.0944528.0788742.1602421.1644144.1602421.08280755 0 .15025431-.065333.16346211-.1594125v-.0004563.0004563l.35516159-2.2418962-.35516159-2.2807227c-.01279377-.094038-.08106859-.1602421-.16346211-.1602421zm1.6850923-1.24588972c-.01411869-.09797874-.08417388-.16555172-.17054215-.16555172-.08682372 0-.15865928.06977148-.17054216.16555172 0 .0008711-.40277594 3.68689602-.40277594 3.68689602l.40277594 3.6052194c.01146885.0966928.0833044.1664643.17054216.1664643.08591283 0 .15600943-.0679878.17008671-.1655518l.458257-3.6061319zm6.34736456-3.40079974c-.16524248 0-.30187494.13551929-.30978306.307708l-.32079646 6.78305736.32079646 4.3835738c.00836356.1712761.14454058.3063806.30978306.3063806.16437299 0 .30055001-.1355608.31023849-.3072517v.0013274l.36265568-4.3840301-.36265568-6.78305736c-.00972988-.17218871-.1459069-.307708-.31023849-.307708zm-3.28518265 2.35754601c-.12690258 0-.23045342.10154613-.24063875.23706541l-.36133076 4.49437024.36133076 4.3482317c.00968848.1346482.11369477.2361943.24063875.2361943.12557765 0 .2291285-.1015461.24018331-.2361943l.41068406-4.3482317-.41068406-4.49528283c-.01105481-.13460669-.11460566-.23615282-.24018331-.23615282zm6.62369335 9.42275885c.2049073 0 .3714747-.1655932.3798383-.3775209l.3146687-4.3098201-.3142133-9.0307195c-.0083636-.21192776-.1749724-.37747948-.3798382-.37747948-.2066877 0-.3736691.16600801-.3803351.37793577l-.2789373 9.02980691.2789373 4.3116038c.0066246.2101855.173606.3761935.3798796.3761935zm6.8347284.0203259c.2820425 0 .5147318-.2326684.51999-.5187647v.0030696-.0030696l.2194815-4.1862474-.2195229-10.42979948c-.0048442-.28563997-.2379475-.51872318-.51999-.51872318-.2824565 0-.5155598.2326684-.51999.51917947l-.1960883 10.42581729c0 .006637.1960883 4.1923866.1960883 4.1923866.0044716.2834415.2379889.5161514.5200314.5161514zm-3.4433865-.0163437c.245483 0 .4433103-.1973678.4499349-.4489931v.0030696l.2670129-4.2444871-.2674684-9.0960525c-.0066246-.25166681-.2044518-.44853688-.4499348-.44853688-.247222 0-.4450492.19691155-.4503489.44853688l-.237492 9.0965088.2379475 4.243616c.0052996.2489705.2031269.4463383.4503488.4463383zm-8.37884081-.039739c.1458655 0 .26399048-.1170186.27500388-.27108l.38691829-4.3844449-.38691829-4.17077494c-.01055796-.1540614-.12864153-.27020893-.27500388-.27020893-.1480185 0-.26614348.11697715-.27537652.27199263l-.34067027 4.16899124.34067027 4.38403c.00968849.1544763.12731661.2714949.27537652.2714949zm-3.25913967-.2401765c.10661472 0 .192983-.0843314.20532132-.2008938l.43449124-4.2153672-.4340772-4.37428199c-.01279376-.11697716-.09916204-.20135005-.20577677-.20135005-.10798105 0-.19434932.0847877-.20536273.20135005l-.38248809 4.37428199.38248809 4.2144961c.01059937.1169772.09696765.2017649.20540414.2017649zm13.35309058-13.65799568c-.2665989 0-.4803666.21238405-.4856249.4843352l-.2167902 8.76403648.2167902 4.2171095c.0052997.2684252.2185705.4808093.4856249.4808093.2661435 0 .4785862-.2119278.484714-.483879v.003526l.2432472-4.2171095-.2432472-8.76540536c-.0061692-.27103857-.2186119-.48342262-.484714-.48342262zm-6.7818972 13.94276458c.1842054 0 .3362401-.150577.3450591-.3426353l.3384344-4.3544539-.3384344-8.33445652c-.0092745-.19251453-.1608537-.34259373-.3450591-.34259373-.1859444 0-.3375236.15053549-.34547312.34259373l-.29963913 8.33445652.30009457 4.3562376c.00745268.1902746.15903188.3408516.34501768.3408516zm3.7791711-.4110379v-.00224l.2908201-4.2824424-.2908201-9.3349016c-.0070801-.2317558-.1895051-.41365113-.4147002-.41365113-.2265201 0-.4089451.18143903-.4150729.41365113l-.2582353 9.3344453.2586493 4.2846824c.0061692.2295573.1886357.4109964.4147003.4109964.2256092 0 .4071647-.1814391.4147002-.4123238v.0017837zm21.997164-9.66559016c-.6905322 0-1.3493077.13995777-1.9494968.3920394-.401037-4.5508677-4.210143-8.12078654-8.8565162-8.12078654-1.1369063 0-2.2452026.22428918-3.2239051.60351087-.3802937.14746589-.4816501.29932878-.4851695.59380426v16.02611937c.0039748.3090354.2432472.5664267.5442527.5969154.0127938.0013274 13.8805333.0083792 13.9704623.0083792 2.7832446 0 5.0399161-2.2608947 5.0399161-5.0497628 0-2.78890968-2.2562574-5.05021916-5.0395435-5.05021916zm-15.5453791-6.54553564c-.3027444 0-.5512499.24901201-.5556801.55493631l-.2273896 11.37503299.227845 4.128381c.0039748.3015688.2525217.5501245.5552247.5501245.3018335 0 .5503804-.2485557.5547692-.5545215v.0048533l.2472219-4.1288373-.2472219-11.37590409c-.0043888-.3050532-.2529357-.55406521-.5547692-.55406521zm-16.32049925 19.855628c-.59621438-.1404141-.7575235-.2154537-.7575235-.4521043 0-.1668376.13439666-.3394826.5371726-.3394826.34414819 0 .61298291.1399163.85449114.3876009l.54247228-.5271024c-.35470615-.3712988-.78439455-.5920621-1.36959552-.5920621-.74207989 0-1.34359396.4198734-1.34359396 1.1037334 0 .7425561.48388594.9633609 1.17661253 1.1244741.70899826.1611547.83813664.2692963.83813664.5116713 0 .2852252-.21020697.4092542-.65529757.4092542-.36000583 0-.6984403-.1236142-.96193394-.4313222l-.54255508.4847915c.28465096.4198733.8332924.6834453 1.46122208.6834453 1.02677225 0 1.47799061-.4843352 1.47799061-1.19997.0000414-.8185497-.66096989-1.0229693-1.25759831-1.1629271zm3.46094168-1.5231505c-1.02586137 0-1.63267512.7964817-1.63267512 1.9430238 0 1.1465836.60677234 1.9425675 1.63267512 1.9425675 1.02590277 0 1.6335446-.7959839 1.6335446-1.9425675 0-1.1465421-.60764183-1.9430238-1.6335446-1.9430238zm0 3.1381404c-.60677235 0-.85974942-.5222905-.85974942-1.1947018 0-.672826.25293567-1.1951166.85974942-1.1951166.60768323 0 .85974942.5222906.85974942 1.1951166 0 .6724113-.25206619 1.1947018-.85974942 1.1947018zm4.66935227-.9633608c0 .6026398-.2961198.9743534-.7737952.9743534-.4781308 0-.7681228-.3823328-.7681228-.9849311v-2.1054644h-.75263786v2.1160836c0 1.0975527.61298286 1.7112265 1.52071926 1.7112265.9562617 0 1.526019-.6300174 1.526019-1.7218042v-2.1055059h-.7521824zm3.9968308-.5222491c0 .2101441.010558.6834453.010558.8234031-.0484425-.0971491-.1718257-.2852252-.2630796-.4255978l-1.3329946-1.9920131h-.7196391v3.7686141h.7416659v-1.6582964c0-.2101026-.0105994-.6834453-.0105994-.8234031.0480284.0966929.1722811.2852252.2630796.4256393l1.381023 2.0560187h.6715692v-3.7686141h-.7416244v1.5942493zm2.8850565-1.593793h-1.1765711v3.7685726h1.1223322c.967275 0 1.9239921-.5602459 1.9239921-1.8842863 0-1.3783393-.795408-1.8842863-1.8697532-1.8842863zm-.0542389 3.0365528h-.3701084v-2.3041182h.3974763c.7954079 0 1.1232844.3818765 1.1232844 1.1518517-.0000414.6891697-.3605026 1.1522665-1.1506523 1.1522665zm4.2502633-2.3473831c.3384344 0 .5534442.1509918.6878409.4092541l.6984403-.3227242c-.2366226-.4896448-.666725-.8344371-1.3757647-.8344371-.9822632 0-1.670601.7964817-1.670601 1.9430238 0 1.1893922.6605559 1.9425675 1.6436886 1.9425675.6825826 0 1.1338424-.3174146 1.3916223-.8503244l-.6336848-.3770232c-.1987795.3342145-.3979317.4794819-.7363662.4794819-.5640436 0-.8918787-.5170224-.8918787-1.1947018-.0003726-.6993326.3230737-1.1951166.8867033-1.1951166zm2.7898278-.6891697h-.7522238v3.7685726h2.2606462v-.7434686h-1.5084224zm3.49009-.0587375c-1.0267309 0-1.6335446.7964817-1.6335446 1.9430238 0 1.1465836.6068137 1.9425675 1.6335446 1.9425675 1.0258613 0 1.6330891-.7959839 1.6330891-1.9425675.0000414-1.1465421-.6072278-1.9430238-1.6330891-1.9430238zm0 3.1381404c-.6076833 0-.8597494-.5222905-.8597494-1.1947018 0-.672826.2520661-1.1951166.8597494-1.1951166.6063997 0 .8588385.5222906.8588385 1.1951166 0 .6724113-.2524388 1.1947018-.8588385 1.1947018zm4.6684414-.9633608c0 .6026398-.2947949.9743534-.7729257.9743534-.4790003 0-.7685369-.3823328-.7685369-.9849311v-2.1054644h-.7521824v2.1160836c0 1.0975527.6125275 1.7112265 1.5207193 1.7112265.9562616 0 1.5256049-.6300174 1.5256049-1.7218042v-2.1055059h-.7526792zm2.8691989-2.1160421h-1.1761571v3.7685726h1.1223736c.9676891 0 1.9234952-.5602459 1.9234952-1.8842863 0-1.3783393-.7949525-1.8842863-1.8697117-1.8842863zm-.0537835 3.0365528h-.3706052v-2.3041182h.3979317c.794497 0 1.1223322.3818765 1.1223322 1.1518517.0000414.6891697-.3600059 1.1522665-1.1496587 1.1522665z" fill="#ff0045" transform="translate(.226 .058)"/></svg>

<?xml version="1.0" encoding="UTF-8"?>
<svg width="42px" height="24px" viewBox="0 0 42 24" version="1.1" xmlns="http://www.w3.org/2000/svg" xmlns:xlink="http://www.w3.org/1999/xlink">
    <!-- Generator: Sketch 58 (84663) - https://sketch.com -->
    <title>Shape</title>
    <desc>Created with Sketch.</desc>
    <g id="Rework6.0" stroke="none" stroke-width="1" fill="none" fill-rule="evenodd">
        <g id="iPhone-8" transform="translate(-167.000000, -1003.000000)" fill="#FF0045" fill-rule="nonzero">
            <g id="Group-17" transform="translate(24.000000, 920.000000)">
                <g id="soundcloud" transform="translate(143.226000, 83.058000)">
                    <path d="M0.50888444,10.6629242 C0.423385642,10.6629242 0.355524852,10.7291697 0.344470044,10.8236226 L0.044830913,13.1039305 L0.344470044,15.3449556 C0.355524852,15.4394084 0.423344238,15.5051977 0.50888444,15.5051977 C0.591691993,15.5051977 0.659138745,15.4398647 0.67234655,15.3457852 L0.67234655,15.3453289 L0.67234655,15.3457852 L1.02750814,13.103889 L0.67234655,10.8231663 C0.659552783,10.7291283 0.591277955,10.6629242 0.50888444,10.6629242 Z M2.19397674,9.41703448 C2.17985805,9.31905574 2.10980286,9.25148276 2.02343459,9.25148276 C1.93661087,9.25148276 1.86477531,9.32125424 1.85289243,9.41703448 C1.85289243,9.41790558 1.45011649,13.1039305 1.45011649,13.1039305 L1.85289243,16.7091499 C1.86436128,16.8058427 1.93619683,16.8756142 2.02343459,16.8756142 C2.10934742,16.8756142 2.17944402,16.8076264 2.1935213,16.7100624 L2.6517783,13.1039305 L2.19397674,9.41703448 L2.19397674,9.41703448 Z M8.5413413,6.01623474 C8.37609882,6.01623474 8.23946636,6.15175403 8.23155824,6.32394274 L7.91076178,13.1070001 L8.23155824,17.4905739 C8.2399218,17.66185 8.37609882,17.7969545 8.5413413,17.7969545 C8.70571429,17.7969545 8.84189131,17.6613937 8.85157979,17.4897028 L8.85157979,17.4910302 L9.21423547,13.1070001 L8.85157979,6.32394274 C8.84184991,6.15175403 8.70567289,6.01623474 8.5413413,6.01623474 Z M5.25615865,8.37378075 C5.12925607,8.37378075 5.02570523,8.47532688 5.0155199,8.61084616 L4.65418914,13.1052164 L5.0155199,17.4534481 C5.02520838,17.5880963 5.12921467,17.6896424 5.25615865,17.6896424 C5.3817363,17.6896424 5.48528715,17.5880963 5.49634196,17.4534481 L5.90702602,13.1052164 L5.49634196,8.60993357 C5.48528715,8.47532688 5.3817363,8.37378075 5.25615865,8.37378075 Z M11.879852,17.7965396 C12.0847593,17.7965396 12.2513267,17.6309464 12.2596903,17.4190187 L12.574359,13.1091986 L12.2601457,4.0784791 C12.2517821,3.86655134 12.0851733,3.70099962 11.8803075,3.70099962 C11.6736198,3.70099962 11.5066384,3.86700763 11.4999724,4.07893539 L11.2210351,13.1087423 L11.4999724,17.4203461 C11.506597,17.6305316 11.6735784,17.7965396 11.879852,17.7965396 L11.879852,17.7965396 Z M18.7145804,17.8168655 C18.9966229,17.8168655 19.2293122,17.5841971 19.2345704,17.2981008 L19.2345704,17.3011704 L19.2345704,17.2981008 L19.4540519,13.1118534 L19.234529,2.68205392 C19.2296848,2.39641395 18.9965815,2.16333074 18.714539,2.16333074 C18.4320825,2.16333074 18.1989792,2.39599914 18.194549,2.68251021 L17.9984607,13.1083275 C17.9984607,13.1149645 18.194549,17.3007141 18.194549,17.3007141 C18.1990206,17.5841556 18.4325379,17.8168655 18.7145804,17.8168655 L18.7145804,17.8168655 Z M15.2711939,17.8005218 C15.5166769,17.8005218 15.7145042,17.603154 15.7211288,17.3515287 L15.7211288,17.3545983 L15.9881417,13.1101112 L15.7206733,4.0140587 C15.7140487,3.76239189 15.5162215,3.56552182 15.2707385,3.56552182 C15.0235165,3.56552182 14.8256893,3.76243337 14.8203896,4.0140587 L14.5828976,13.1105675 L14.8208451,17.3541835 C14.8261447,17.603154 15.023972,17.8005218 15.2711939,17.8005218 L15.2711939,17.8005218 Z M6.89235309,17.7607828 C7.03821859,17.7607828 7.15634357,17.6437642 7.16735697,17.4897028 L7.55427526,13.1052579 L7.16735697,8.93448296 C7.15679901,8.78042156 7.03871544,8.66427403 6.89235309,8.66427403 C6.74433459,8.66427403 6.62620961,8.78125118 6.61697657,8.93626666 L6.2763063,13.1052579 L6.61697657,17.4892879 C6.62666506,17.6437642 6.74429318,17.7607828 6.89235309,17.7607828 Z M3.63321342,17.5206063 C3.73982814,17.5206063 3.82619642,17.4362749 3.83853474,17.3197125 L4.27302598,13.1043453 L3.83894878,8.73006331 C3.82615502,8.61308615 3.73978674,8.52871326 3.63317201,8.52871326 C3.52519096,8.52871326 3.43882269,8.61350096 3.42780928,8.73006331 L3.04532119,13.1043453 L3.42780928,17.3188414 C3.43840865,17.4358186 3.52477693,17.5206063 3.63321342,17.5206063 L3.63321342,17.5206063 Z M16.986304,3.86261062 C16.7197051,3.86261062 16.5059374,4.07499467 16.5006791,4.34694582 L16.2838889,13.1109823 L16.5006791,17.3280918 C16.5059788,17.596517 16.7192496,17.8089011 16.986304,17.8089011 C17.2524475,17.8089011 17.4648902,17.5969733 17.471018,17.3250221 L17.471018,17.3285481 L17.7142652,13.1114386 L17.471018,4.34603324 C17.4648488,4.07499467 17.2524061,3.86261062 16.986304,3.86261062 Z M10.2044068,17.8053752 C10.3886122,17.8053752 10.5406469,17.6547982 10.5494659,17.4627399 L10.8879003,13.108286 L10.5494659,4.77382948 C10.5401914,4.58131495 10.3886122,4.43123575 10.2044068,4.43123575 C10.0184624,4.43123575 9.8668832,4.58177124 9.85893368,4.77382948 L9.55929455,13.108286 L9.85938912,17.4645236 C9.8668418,17.6547982 10.018421,17.8053752 10.2044068,17.8053752 Z M13.9835779,17.3943373 L13.9835779,17.3920973 L14.274398,13.1096549 L13.9835779,3.7747533 C13.9764978,3.5429975 13.7940728,3.36110217 13.5688777,3.36110217 C13.3423576,3.36110217 13.1599326,3.5425412 13.1538048,3.7747533 L12.8955695,13.1091986 L13.1542188,17.393881 C13.160388,17.6234383 13.3428545,17.8048774 13.5689191,17.8048774 C13.7945283,17.8048774 13.9760838,17.6234383 13.9836193,17.3925536 L13.9836193,17.3943373 L13.9835779,17.3943373 Z M35.9807419,7.72874714 C35.2902097,7.72874714 34.6314342,7.86870491 34.0312451,8.12078654 C33.6302081,3.56991884 29.8211021,0 25.1747289,0 C24.0378226,0 22.9295263,0.22428918 21.9508238,0.603510872 C21.5705301,0.750976756 21.4691737,0.902839654 21.4656543,1.19731513 L21.4656543,17.2234345 C21.4696291,17.5324699 21.7089015,17.7898612 22.009907,17.8203499 C22.0227008,17.8216773 35.8904403,17.8287291 35.9803693,17.8287291 C38.7636139,17.8287291 41.0202854,15.5678344 41.0202854,12.7789663 C41.0202854,9.99005662 38.764028,7.72874714 35.9807419,7.72874714 Z M20.4353628,1.1832115 C20.1326184,1.1832115 19.8841129,1.43222351 19.8796827,1.73814781 L19.6522931,13.1131808 L19.8801381,17.2415618 C19.8841129,17.5431306 20.1326598,17.7916863 20.4353628,17.7916863 C20.7371963,17.7916863 20.9857432,17.5431306 20.990132,17.2371648 L20.990132,17.2420181 L21.2373539,13.1131808 L20.990132,1.73727671 C20.9857432,1.43222351 20.7371963,1.1832115 20.4353628,1.1832115 Z M4.11486355,21.0388395 C3.51864917,20.8984254 3.35734005,20.8233858 3.35734005,20.5867352 C3.35734005,20.4198976 3.49173671,20.2472526 3.89451265,20.2472526 C4.23866084,20.2472526 4.50749556,20.3871689 4.74900379,20.6348535 L5.29147607,20.1077511 C4.93676992,19.7364523 4.50708152,19.515689 3.92188055,19.515689 C3.17980066,19.515689 2.57828659,19.9355624 2.57828659,20.6194224 C2.57828659,21.3619785 3.06217253,21.5827833 3.75489912,21.7438965 C4.46389738,21.9050512 4.59303576,22.0131928 4.59303576,22.2555678 C4.59303576,22.540793 4.38282879,22.664822 3.93773819,22.664822 C3.57773236,22.664822 3.23929789,22.5412078 2.97580425,22.2334998 L2.43324917,22.7182913 C2.71790013,23.1381646 3.26654157,23.4017366 3.89447125,23.4017366 C4.9212435,23.4017366 5.37246186,22.9174014 5.37246186,22.2017666 C5.37250326,21.3832169 4.71149197,21.1787973 4.11486355,21.0388395 L4.11486355,21.0388395 Z M7.57580523,19.515689 C6.54994386,19.515689 5.94313011,20.3121707 5.94313011,21.4587128 C5.94313011,22.6052964 6.54990245,23.4012803 7.57580523,23.4012803 C8.601708,23.4012803 9.20934983,22.6052964 9.20934983,21.4587128 C9.20934983,20.3121707 8.601708,19.515689 7.57580523,19.515689 Z M7.57580523,22.6538294 C6.96903288,22.6538294 6.71605581,22.1315389 6.71605581,21.4591276 C6.71605581,20.7863016 6.96899148,20.264011 7.57580523,20.264011 C8.18348846,20.264011 8.43555465,20.7863016 8.43555465,21.4591276 C8.43555465,22.1315389 8.18348846,22.6538294 7.57580523,22.6538294 Z M12.2451575,21.6904686 C12.2451575,22.2931084 11.9490377,22.664822 11.4713623,22.664822 C10.9932315,22.664822 10.7032395,22.2824892 10.7032395,21.6798909 L10.7032395,19.5744265 L9.95060164,19.5744265 L9.95060164,21.6905101 C9.95060164,22.7880628 10.5635845,23.4017366 11.4713209,23.4017366 C12.4275826,23.4017366 12.9973399,22.7717192 12.9973399,21.6799324 L12.9973399,19.5744265 L12.2451575,19.5744265 L12.2451575,21.6904686 Z M16.2419883,21.1682195 C16.2419883,21.3783636 16.2525463,21.8516648 16.2525463,21.9916226 C16.2041038,21.8944735 16.0807206,21.7063974 15.9894667,21.5660248 L14.6564721,19.5740117 L13.936833,19.5740117 L13.936833,23.3426258 L14.6784989,23.3426258 L14.6784989,21.6843294 C14.6784989,21.4742268 14.6678995,21.0008841 14.6678995,20.8609263 C14.7159279,20.9576192 14.8401806,21.1461515 14.9309791,21.2865656 L16.3120021,23.3425843 L16.9835713,23.3425843 L16.9835713,19.5739702 L16.2419469,19.5739702 L16.2419469,21.1682195 L16.2419883,21.1682195 L16.2419883,21.1682195 Z M19.1270448,19.5744265 L17.9504737,19.5744265 L17.9504737,23.3429991 L19.0728059,23.3429991 C20.0400809,23.3429991 20.996798,22.7827532 20.996798,21.4587128 C20.996798,20.0803735 20.20139,19.5744265 19.1270448,19.5744265 L19.1270448,19.5744265 Z M19.0728059,22.6109793 L18.7026975,22.6109793 L18.7026975,20.3068611 L19.1001738,20.3068611 C19.8955817,20.3068611 20.2234582,20.6887376 20.2234582,21.4587128 C20.2234168,22.1478825 19.8629556,22.6109793 19.0728059,22.6109793 Z M23.3230692,20.2635962 C23.6615036,20.2635962 23.8765134,20.414588 24.0109101,20.6728503 L24.7093504,20.3501261 C24.4727278,19.8604813 24.0426254,19.515689 23.3335857,19.515689 C22.3513225,19.515689 21.6629847,20.3121707 21.6629847,21.4587128 C21.6629847,22.648105 22.3235406,23.4012803 23.3066733,23.4012803 C23.9892559,23.4012803 24.4405157,23.0838657 24.6982956,22.5509559 L24.0646108,22.1739327 C23.8658313,22.5081472 23.6666791,22.6534146 23.3282446,22.6534146 C22.764201,22.6534146 22.4363659,22.1363922 22.4363659,21.4587128 C22.4359933,20.7593802 22.7594396,20.2635962 23.3230692,20.2635962 L23.3230692,20.2635962 Z M26.112897,19.5744265 L25.3606732,19.5744265 L25.3606732,23.3429991 L27.6213194,23.3429991 L27.6213194,22.5995305 L26.112897,22.5995305 L26.112897,19.5744265 L26.112897,19.5744265 Z M29.602987,19.515689 C28.5762561,19.515689 27.9694424,20.3121707 27.9694424,21.4587128 C27.9694424,22.6052964 28.5762561,23.4012803 29.602987,23.4012803 C30.6288483,23.4012803 31.2360761,22.6052964 31.2360761,21.4587128 C31.2361175,20.3121707 30.6288483,19.515689 29.602987,19.515689 Z M29.602987,22.6538294 C28.9953037,22.6538294 28.7432376,22.1315389 28.7432376,21.4591276 C28.7432376,20.7863016 28.9953037,20.264011 29.602987,20.264011 C30.2093867,20.264011 30.4618255,20.7863016 30.4618255,21.4591276 C30.4618255,22.1315389 30.2093867,22.6538294 29.602987,22.6538294 Z M34.2714284,21.6904686 C34.2714284,22.2931084 33.9766335,22.664822 33.4985027,22.664822 C33.0195024,22.664822 32.7299658,22.2824892 32.7299658,21.6798909 L32.7299658,19.5744265 L31.9777834,19.5744265 L31.9777834,21.6905101 C31.9777834,22.7880628 32.5903109,23.4017366 33.4985027,23.4017366 C34.4547643,23.4017366 35.0241076,22.7717192 35.0241076,21.6799324 L35.0241076,19.5744265 L34.2714284,19.5744265 L34.2714284,21.6904686 L34.2714284,21.6904686 Z M37.1406273,19.5744265 L35.9644702,19.5744265 L35.9644702,23.3429991 L37.0868438,23.3429991 C38.0545329,23.3429991 39.010339,22.7827532 39.010339,21.4587128 C39.010339,20.0803735 38.2153865,19.5744265 37.1406273,19.5744265 L37.1406273,19.5744265 Z M37.0868438,22.6109793 L36.7162386,22.6109793 L36.7162386,20.3068611 L37.1141703,20.3068611 C37.9086673,20.3068611 38.2365025,20.6887376 38.2365025,21.4587128 C38.2365439,22.1478825 37.8764966,22.6109793 37.0868438,22.6109793 L37.0868438,22.6109793 Z" id="Shape"></path>
                </g>
            </g>
        </g>
    </g>
</svg>
